catenergy/img/advantage-watch.svg

<svg width="26pt" height="31pt" viewBox="0 0 26 31" xmlns="http://www.w3.org/2000/svg"><g fill="#fff"><path d="M4.28 0h17.54c0 .49.01 1.47.01 1.96-2.75.03-5.51.12-8.25.25 6.08.64 11.54 5.12 12.42 11.33v3.34c-.6 4.22-3.36 7.63-6.83 9.9.96.9 1.9 1.8 2.86 2.7l-1.23 1.51 1.21.01h-1.34c-1.23-1.07-2.41-2.19-3.61-3.3-2.68.41-5.39.42-8.07.02-1.11 1.09-2.22 2.18-3.34 3.27l1.29.01H5.61l-1.54-1.22c.91-1.01 1.86-1.99 2.8-2.98C3.31 24.51.52 20.99 0 16.69v-2.94C.71 7.31 6.42 2.93 12.54 2.08c-2.74-.05-5.48-.09-8.22-.1L4.28 0M1.81 14.89c.87-.22 2.63-.65 3.5-.87 2.16 1.37-1.23 4.27-1.4 1.02C3.28 15.7 2.65 16.35 2 17c1.15 5.06 5.72 9.26 11.04 9.1 5.3.12 9.82-4.07 10.96-9.1-.65-.65-1.28-1.3-1.91-1.96l-.44 1.24-1.13.25c-1.9-2.93 1.98-2.61 3.67-1.64-.51-5.66-5.42-10.6-11.2-10.47C7.2 4.3 2.34 9.25 1.81 14.89z"/><path d="M12 6.81h2.06c0 3.18.04 6.36-.1 9.54-.46-.1-1.36-.31-1.81-.41-.3-3.04-.11-6.09-.15-9.13zM6.04 8.74c1.28-1.14 3.4.48 2.23 1.94-1.09 1.96-3.94-.57-2.23-1.94zm11.01 1c.28-.49.84-1.49 1.12-1.99 1.24.03 1.82.7 1.75 2.02-.29 1.45-2.59 1.42-2.87-.03zm.46 10.96c.48-.49.96-.97 1.44-1.46l1.55 1.4c-.37.36-1.1 1.1-1.47 1.47-.38-.35-1.14-1.06-1.52-1.41zm-10.94-.59c1.35-1.67 3.33 1.1 1.96 2.27-1.44 1.35-3.43-.98-1.96-2.27zm5.63 1.94c1.47-1.27 3.07 1.39 1.61 2.37-1.45 1.18-2.96-1.36-1.61-2.37z"/></g></svg>

<?xml version="1.0" encoding="UTF-8" ?>
<!DOCTYPE svg PUBLIC "-//W3C//DTD SVG 1.1//EN" "http://www.w3.org/Graphics/SVG/1.1/DTD/svg11.dtd">
<svg width="26pt" height="31pt" viewBox="0 0 26 31" version="1.1" xmlns="http://www.w3.org/2000/svg">
<g id="#ffffffff">
<path fill="#ffffff" opacity="1.00" d=" M 4.28 0.00 L 21.82 0.00 C 21.82 0.49 21.83 1.47 21.83 1.96 C 19.08 1.99 16.32 2.08 13.58 2.21 C 19.66 2.85 25.12 7.33 26.00 13.54 L 26.00 16.88 C 25.40 21.10 22.64 24.51 19.17 26.78 C 20.13 27.68 21.07 28.58 22.03 29.48 L 20.80 30.99 L 22.01 31.00 L 20.67 31.00 C 19.44 29.93 18.26 28.81 17.06 27.70 C 14.38 28.11 11.67 28.12 8.99 27.72 C 7.88 28.81 6.77 29.90 5.65 30.99 L 6.94 31.00 L 5.61 31.00 C 5.22 30.69 4.45 30.08 4.07 29.78 C 4.98 28.77 5.93 27.79 6.87 26.80 C 3.31 24.51 0.52 20.99 0.00 16.69 L 0.00 13.75 C 0.71 7.31 6.42 2.93 12.54 2.08 C 9.80 2.03 7.06 1.99 4.32 1.98 C 4.31 1.49 4.29 0.50 4.28 0.00 M 1.81 14.89 C 2.68 14.67 4.44 14.24 5.31 14.02 C 7.47 15.39 4.08 18.29 3.91 15.04 C 3.28 15.70 2.65 16.35 2.00 17.00 C 3.15 22.06 7.72 26.26 13.04 26.10 C 18.34 26.22 22.86 22.03 24.00 17.00 C 23.35 16.35 22.72 15.70 22.09 15.04 L 21.65 16.28 L 20.52 16.53 C 18.62 13.60 22.50 13.92 24.19 14.89 C 23.68 9.23 18.77 4.29 12.99 4.42 C 7.20 4.30 2.34 9.25 1.81 14.89 Z" />
<path fill="#ffffff" opacity="1.00" d=" M 12.00 6.81 C 12.52 6.81 13.55 6.81 14.06 6.81 C 14.06 9.99 14.10 13.17 13.96 16.35 C 13.50 16.25 12.60 16.04 12.15 15.94 C 11.85 12.90 12.04 9.85 12.00 6.81 Z" />
<path fill="#ffffff" opacity="1.00" d=" M 6.04 8.74 C 7.32 7.60 9.44 9.22 8.27 10.68 C 7.18 12.64 4.33 10.11 6.04 8.74 Z" />
<path fill="#ffffff" opacity="1.00" d=" M 17.05 9.74 C 17.33 9.25 17.89 8.25 18.17 7.75 C 19.41 7.78 19.99 8.45 19.92 9.77 C 19.63 11.22 17.33 11.19 17.05 9.74 Z" />
<path fill="#ffffff" opacity="1.00" d=" M 17.51 20.70 C 17.99 20.21 18.47 19.73 18.95 19.24 C 19.46 19.70 19.98 20.17 20.50 20.64 C 20.13 21.00 19.40 21.74 19.03 22.11 C 18.65 21.76 17.89 21.05 17.51 20.70 Z" />
<path fill="#ffffff" opacity="1.00" d=" M 6.57 20.11 C 7.92 18.44 9.90 21.21 8.53 22.38 C 7.09 23.73 5.10 21.40 6.57 20.11 Z" />
<path fill="#ffffff" opacity="1.00" d=" M 12.20 22.05 C 13.67 20.78 15.27 23.44 13.81 24.42 C 12.36 25.60 10.85 23.06 12.20 22.05 Z" />
</g>
</svg>
